X:1
T:Tudor, CM
T:Tudor, CM
T:James Pentland Jewson, 1876
T:Public Domain Courtesy of the Cyber Hymnal™
C:James Pentland Jewson, 1876
Z:Public Domain
Z:Courtesy of the Cyber Hymnal™
%%score ( 1 2 ) ( 3 4 )
L:1/8
Q:1/4=108
M:4/4
K:Ab
V:1 treble 
V:2 treble 
V:3 bass 
V:4 bass 
V:1
 [Ec]2 | [Ed]2 [Ec]2 [Fc]2 [FB]2 | [EA]2 [EG]2 [EA]2 [EB]2 | [Ec]2 [CG]2 [CA]2 [=DB]2 | E6 E2 | %5
 [DF]2 [DG]2 [EA]2 [Ec]2 | e3 z d [Ec]2 [FA]2 | [FB]2 F2 [EA]2 [EG]2 | [EA]6 |] %9
V:2
 x2 | x8 | x8 | x8 | E6 E2 | x8 | E2 E2 x5 | x2 F2 x4 | x6 |] %9
V:3
 A,2 | [G,B,]2 A,2 [D,B,]2 [D,D]2 | [E,C]2 [E,B,]2 [A,C]2 [G,B,]2 | A,2 [=E,B,]2 [F,A,]2 [B,,B,]2 | %4
 [E,G,]6 [C,A,]2 | [D,A,]2 [B,,B,]2 [C,A,]2 [A,,A,]2 | [G,,B,]2 [G,B,]2 A,2 [F,C]2 x | %7
 [B,,D]2 [D,D]2 [E,B,]2 [E,D]2 | [A,,C]6 |] %9
V:4
 A,2 | x2 A,2 x4 | x8 | A,2 x6 | x8 | x8 | x4 A,2 x3 | x8 | x6 |] %9

